X:1
T:Title
%%score { ( 1 3 ) | ( 2 4 ) }
L:1/8
Q:1/4=106
M:4/4
K:E
V:1 treble nm="Grand Piano"
V:3 treble 
V:2 bass 
V:4 bass 
V:1
 E2 E>G [GB]2 [GB]>[Ac] | [GB]4 [EG]2 z2 | [Ge]2 [GB]>[Ac] [GB]2 [EG]>[EG] | z Bdc BAGF | %4
w: J.~H.~Tenney * * * * *||||
 E2 E>G [GB]2 [GB]>[Ac] | [GB]4 [EG]2 z2 | [FB]2 [Gc]>[Gc] d2 d>c | [DB]6 z2 | %8
w: ||||
 F2 G>G A2 [DB]>[FA] | [EG]4 [EB]2 z2 | [^EB]2 [Ec]>[CEB] [CFA]2 [CFB]>[CFA] | [EG]4 F2 z2 | %12
w: ||||
 E2 G>B e2 d>c | B4 G2 z2 | E2 F>F G2 [DG]>[DF] | E6 z2 |] %16
w: ||||
V:2
 [E,G,]2 [E,G,]>[E,B,E] [E,E]2 [E,E]>[E,E] | [E,E]4 [E,B,]2 z2 | %2
 [E,B,]2 [E,E]>[E,E] [E,E]2 [E,B,]>[E,B,] | [B,,B,]6 z2 | %4
 [E,G,]2 [E,G,]>[E,B,E] [E,E]2 [E,E]>[E,E] | [E,E]4 [E,B,]2 z2 | %6
 [D,B,]2 [E,B,]>[E,B,] [F,B,F]2 [F,^A,F]>[F,A,E] | [B,,B,]6 z2 | %8
 [A,B,D]2 [G,B,E]>[G,B,E] [F,B,F]2 [B,,B,]>[B,,B,] | [E,B,]4 [E,G,]2 z2 | %10
 [C,G,]2 [C,G,]>C, F,2 A,,>A,, | z4 D2 z2 | [E,G,]2 [E,B,E]>[E,G,E] [E,G,E]2 [A,E]>[A,E] | %13
 [E,G,E]4 [E,B,E]2 z2 | [G,B,]2 [A,CE]>[A,CE] [B,E]2 [B,,B,]>[B,,A,] | [E,G,]6 z2 |] %16
V:3
 x8 | x8 | x8 | [DF]6 z2 | x8 | x8 | x8 | x8 | x8 | x8 | x8 | B,6 z2 | x8 | x8 | x8 | x8 |] %16
V:4
 x8 | x8 | x8 | x8 | x8 | x8 | x8 | x8 | x8 | x8 | x8 | B,,6 z2 | x8 | x8 | x8 | x8 |] %16

